raw-svg/twitter.svg

<svg fill="none" height="14" viewBox="0 0 14 14" width="14" xmlns="http://www.w3.org/2000/svg" xmlns:xlink="http://www.w3.org/1999/xlink"><clipPath id="a"><path d="m0 0h14v14h-14z"/></clipPath><g clip-path="url(#a)"><path d="m11.0248.65625h2.1477l-4.69097 5.37389 5.51847 7.31366h-4.31986l-3.38592-4.43457-3.86962 4.43457h-2.150806l5.016516-5.74907-5.29031-6.93848h4.42938l3.05736 4.05329zm-.7545 11.40045h1.1895l-7.6784-10.1805h-1.27771z" fill="#000"/></g></svg>

<svg width="14" height="14" viewBox="0 0 14 14" fill="none" xmlns="http://www.w3.org/2000/svg">
<g clip-path="url(#clip0_156_4482)">
<path d="M11.0248 0.65625H13.1725L8.48153 6.03014L14 13.3438H9.68014L6.29422 8.90923L2.4246 13.3438H0.273794L5.29031 7.59473L0 0.65625H4.42938L7.48674 4.70954L11.0248 0.65625ZM10.2703 12.0567H11.4598L3.7814 1.8762H2.50369L10.2703 12.0567Z" fill="black"/>
</g>
<defs>
<clipPath id="clip0_156_4482">
<rect width="14" height="14" fill="white"/>
</clipPath>
</defs>
</svg>
